findly-builder/apps/searchassist/src/assets/icons/faq/hand.svg

<svg width="13" height="14" viewBox="0 0 13 14" fill="none" xmlns="http://www.w3.org/2000/svg">
<path d="M5.49756 0C4.67334 0 3.99756 0.675781 3.99756 1.5L4.00147 7.88281L2.56006 6.4375C1.97803 5.85547 1.01709 5.85938 0.43506 6.4375C-0.146971 7.01953 -0.143065 7.98047 0.43506 8.5625L4.02881 12.1523C5.2124 13.3359 6.82178 14.0039 8.49756 14C10.978 14 12.9976 11.9805 12.9976 9.5V6.5C12.9976 5.67578 12.3218 5 11.4976 5C11.3022 5 11.1108 5.03906 10.939 5.10938C10.7632 4.47656 10.1851 4 9.49756 4C9.11475 4 8.76318 4.15234 8.49756 4.39062C8.23193 4.15234 7.88037 4 7.49756 4C7.32178 4 7.15381 4.03906 6.99756 4.09375V1.5C6.99756 0.675781 6.32178 0 5.49756 0ZM5.49756 1C5.77881 1 5.99756 1.21875 5.99756 1.5V7H6.99756V5.5C6.99756 5.21875 7.21631 5 7.49756 5C7.77881 5 7.99756 5.21875 7.99756 5.5V7H8.99756V5.5C8.99756 5.21875 9.21631 5 9.49756 5C9.77881 5 9.99756 5.21875 9.99756 5.5V7H10.9976V6.5C10.9976 6.21875 11.2163 6 11.4976 6C11.7788 6 11.9976 6.21875 11.9976 6.5V9.5C11.9976 11.4414 10.439 13 8.49756 13C7.0874 13.0039 5.73193 12.4414 4.73193 11.4414L1.146 7.85156C0.942873 7.65234 0.942873 7.34375 1.146 7.14844C1.34522 6.94531 1.65381 6.94531 1.84912 7.14844L5.00147 10.2969L4.99756 1.5C4.99756 1.21875 5.21631 1 5.49756 1Z" fill="#9AA0A6"/>
</svg>

<svg width="13" height="14" fill="none" xmlns="http://www.w3.org/2000/svg"><path d="M5.498 0c-.825 0-1.5.676-1.5 1.5L4 7.883 2.56 6.437a1.515 1.515 0 0 0-2.126 0 1.515 1.515 0 0 0 0 2.125l3.594 3.59A6.305 6.305 0 0 0 8.498 14c2.48 0 4.5-2.02 4.5-4.5v-3c0-.824-.676-1.5-1.5-1.5-.196 0-.387.04-.559.11A1.508 1.508 0 0 0 9.498 4a1.5 1.5 0 0 0-1 .39 1.501 1.501 0 0 0-1-.39c-.176 0-.344.04-.5.094V1.5c0-.824-.676-1.5-1.5-1.5Zm0 1c.28 0 .5.219.5.5V7h1V5.5c0-.281.218-.5.5-.5.28 0 .5.219.5.5V7h1V5.5c0-.281.218-.5.5-.5.28 0 .5.219.5.5V7h1v-.5c0-.281.218-.5.5-.5.28 0 .5.219.5.5v3a3.49 3.49 0 0 1-3.5 3.5 5.309 5.309 0 0 1-3.766-1.559l-3.586-3.59a.482.482 0 0 1 0-.703.482.482 0 0 1 .703 0l3.152 3.149L4.998 1.5c0-.281.218-.5.5-.5Z" fill="#9AA0A6"/></svg>
